X: 73
T: No_167_The_Entire_World.krn
%%abc-version 2.0
%%abcx-abcm2ps-target-version 5.9.1 (29 Sep 2008)
%%abc-creator hum2abc beta
%%abcx-conversion-date 2020/08/10 18:54:57
%%gracespace 0 6 6
%%humdrum-veritas 2126042262
%%humdrum-veritas-data 218017669
%%linebreak <none>
%%barnumbers 0
L: 1/8
M: 3/4
%%staves {1 2}
V: 1 clef=treble
V: 2 clef=bass
K: Db
[V:1] z/ F<FF/ [I:setbarnb 1]| 
[V:2] z3 | 
[V:1] G4F3/D/ ||  
[V:2] (3:2:9!accent!G,, z G,, !accent!G,, z G,, !accent!G,, z G,, ||  
[V:1] [M:4/4]F4-F>FF3/F/ | 
[V:2] [M:4/4]z8 | 
[V:1] G4F>D (3FFD[K:clef=bass] | 
[V:2] z8 | 
[V:1] B,4F,>F,F,3/F,/ | 
[V:2] z8 | 
[V:1] [M:3/4]G,4F,3/D,/ | 
[V:2] [M:3/4]z6 | 
[V:1] F,4-F,3/F,/ ||  
[V:2] z6 ||  
[V:1] [M:2/4]G,2B,3/G,/ ||  
[V:2] [M:2/4]z4 ||  
[V:1] [M:3/4]F,4F,3/D,/ ||  
[V:2] [M:3/4]z6 ||  
[V:1] [M:4/4]F,4F,D,-D,2 ||  
[V:2] [M:4/4]z8 ||  
[V:1] [M:3/4]B,,2B,,3B,, | 
[V:2] [M:3/4]z6 | 
[V:1] B,,4D3/D/ | 
[V:2] z6 | 
[V:1] F2F4 ||  
[V:2] z6 ||  
[V:1] [M:2/4]FD FD ||  
[V:2] [M:2/4]z4 ||  
[V:1] [M:3/4]B,B, G,>F, F,3/F,/ | 
[V:2] [M:3/4]z6 | 
[V:1] G,4F,3/D,/ | 
[V:2] z6 | 
[V:1] F,4-F,3/G,/ ||  
[V:2] z6 ||  
[V:1] [M:2/4]G,2B,3/G,/ ||  
[V:2] [M:2/4]z4 ||  
[V:1] [M:3/4]F,4F,D, ||  
[V:2] [M:3/4]z6 ||  
[V:1] [M:2/4]F,4 | 
[V:2] [M:2/4]z4 | 
[V:1] F,<D,-D,2 | 
[V:2] z4 | 
[V:1] B,,2B,,2- | 
[V:2] z4 | 
[V:1] B,,2B,,2 |]  
[V:2] z4 |]  


